X:269
M:C
L:1/8
K:B_
|:g|f>dg>e f2 d>g|g>d e/d/c/B/ A<c cd/e/|1 f>dg>d f>db>d|
e/d/c/B/ F>c d<BB:|2 f>dB>F G2 E>G|F>B A/B/c d<B~B||

